styles/5/Numix-Circle/48x48/apps/thunar.svg

<?xml version="1.0" encoding="UTF-8" standalone="no"?>
<svg
   xmlns:dc="http://purl.org/dc/elements/1.1/"
   xmlns:cc="http://creativecommons.org/ns#"
   xmlns:rdf="http://www.w3.org/1999/02/22-rdf-syntax-ns#"
   xmlns:svg="http://www.w3.org/2000/svg"
   xmlns="http://www.w3.org/2000/svg"
   xmlns:xlink="http://www.w3.org/1999/xlink"
   xmlns:sodipodi="http://sodipodi.sourceforge.net/DTD/sodipodi-0.dtd"
   xmlns:inkscape="http://www.inkscape.org/namespaces/inkscape"
   width="48"
   viewBox="0 0 13.546667 13.546667"
   height="48"
   id="svg2"
   version="1.1"
   inkscape:version="0.91 r"
   sodipodi:docname="thunar.svg">
  <metadata
     id="metadata331">
    <rdf:RDF>
      <cc:Work
         rdf:about="">
        <dc:format>image/svg+xml</dc:format>
        <dc:type
           rdf:resource="http://purl.org/dc/dcmitype/StillImage" />
        <dc:title />
      </cc:Work>
    </rdf:RDF>
  </metadata>
  <sodipodi:namedview
     pagecolor="#ffffff"
     bordercolor="#666666"
     borderopacity="1"
     objecttolerance="10"
     gridtolerance="10"
     guidetolerance="10"
     inkscape:pageopacity="0"
     inkscape:pageshadow="2"
     inkscape:window-width="1280"
     inkscape:window-height="998"
     id="namedview329"
     showgrid="false"
     inkscape:zoom="17.138526"
     inkscape:cx="28.690544"
     inkscape:cy="21.200497"
     inkscape:window-x="0"
     inkscape:window-y="0"
     inkscape:window-maximized="1"
     inkscape:current-layer="layer3"
     showguides="true"
     inkscape:guide-bbox="true">
    <inkscape:grid
       type="xygrid"
       id="grid3308" />
  </sodipodi:namedview>
  <defs
     id="defs4">
    <linearGradient
       inkscape:collect="always"
       xlink:href="#linearGradient3764"
       id="linearGradient4147"
       x1="-27"
       y1="13"
       x2="-24"
       y2="13"
       gradientUnits="userSpaceOnUse" />
    <linearGradient
       id="linearGradient3764"
       x1="1"
       x2="47"
       gradientUnits="userSpaceOnUse"
       gradientTransform="matrix(0,-1,1,0,-1.5e-6,47.999998)">
      <stop
         stop-color="#676799"
         stop-opacity="1"
         id="stop7-72" />
      <stop
         offset="1"
         stop-color="#7373a1"
         stop-opacity="1"
         id="stop9-2" />
    </linearGradient>
  </defs>
  <g
     inkscape:groupmode="layer"
     id="layer1"
     inkscape:label="Shadow"
     sodipodi:insensitive="true">
    <path
       style="opacity:0.05;fill:#000000;fill-opacity:1;stroke:none"
       d="M 25,2 C 12.297451,2 2,12.297451 2,25 2,31.367153 4.6007106,37.116628 8.78125,41.28125 12.865755,44.99361 18.29568,47.25 24.25,47.25 c 12.702549,0 23,-10.297451 23,-23 0,-5.95432 -2.25639,-11.384245 -5.96875,-15.46875 C 37.116628,4.6007105 31.367153,2 25,2 z M 41.28125,8.78125 C 45.135604,12.894061 47.5,18.418655 47.5,24.5 c 0,12.702549 -10.297451,23 -23,23 C 18.418655,47.5 12.894061,45.135604 8.78125,41.28125 12.940939,45.4251 18.664604,48 25,48 37.702549,48 48,37.702549 48,25 48,18.664604 45.4251,12.940939 41.28125,8.78125 z"
       transform="scale(0.28222223,0.28222223)"
       id="path3978"
       inkscape:connector-curvature="0" />
    <path
       style="opacity:0.1;fill:#000000;fill-opacity:1;stroke:none"
       d="M 41.28125,8.78125 C 44.99361,12.865755 47.25,18.29568 47.25,24.25 c 0,12.702549 -10.297451,23 -23,23 -5.95432,0 -11.384245,-2.25639 -15.46875,-5.96875 C 12.894061,45.135604 18.418655,47.5 24.5,47.5 c 12.702549,0 23,-10.297451 23,-23 0,-6.081345 -2.364396,-11.605939 -6.21875,-15.71875 z"
       transform="scale(0.28222223,0.28222223)"
       id="path3976"
       inkscape:connector-curvature="0" />
    <path
       transform="matrix(4.3274074,0,0,3.2455556,117.19278,-35.348334)"
       d="m -24,13 a 1.5,2 0 1 1 -3,0 1.5,2 0 1 1 3,0 z"
       sodipodi:ry="2"
       sodipodi:rx="1.5"
       sodipodi:cy="13"
       sodipodi:cx="-25.5"
       id="path3952"
       style="opacity:0.2;fill:#000000;fill-opacity:1;stroke:none"
       sodipodi:type="arc" />
  </g>
  <g
     inkscape:groupmode="layer"
     id="layer2"
     inkscape:label="Base">
    <path
       sodipodi:type="arc"
       style="fill:url(#linearGradient4147);fill-opacity:1.0;stroke:none"
       id="path3942"
       sodipodi:cx="-25.5"
       sodipodi:cy="13"
       sodipodi:rx="1.5"
       sodipodi:ry="2"
       d="m -24,13 a 1.5,2 0 1 1 -3,0 1.5,2 0 1 1 3,0 z"
       transform="matrix(0,-4.3274075,3.2455556,0,-35.429918,-103.60974)" />
    <path
       style="opacity:0.1;fill:#000000;fill-opacity:1;stroke:none"
       d="M 40.03125 7.53125 C 43.74361 11.615755 46 17.04568 46 23 C 46 35.702549 35.702549 46 23 46 C 17.04568 46 11.615755 43.74361 7.53125 40.03125 C 11.709416 44.322508 17.537578 47 24 47 C 36.702549 47 47 36.702549 47 24 C 47 17.537578 44.322508 11.709416 40.03125 7.53125 z "
       transform="scale(0.28222223,0.28222223)"
       id="path4027" />
  </g>
  <g
     inkscape:groupmode="layer"
     id="layer3"
     inkscape:label="Symbol">
    <rect
       style="fill:#fffdf0;fill-opacity:1;stroke:none"
       id="rect3799"
       width="3.104444"
       height="1.1288817"
       x="3.951112"
       y="5.079999" />
    <path
       style="fill:none;stroke:none"
       d="m 6.7733341,4.9388874 -0.7055557,0.4233334 0.4233335,0 z"
       id="path3801"
       inkscape:connector-curvature="0" />
    <path
       style="fill:#000000;fill-opacity:0.10196078;stroke:none"
       d="m 7.9375002,4.2333315 c -0.5373542,0 -0.7117802,0.4237228 -0.9877778,0.8466667 l -2.5752777,0 c -0.3908778,0 -0.7055556,0.3146778 -0.7055556,0.7055556 l 0,0.2822222 0,2.3988891 0,0.4233333 0,0.2469445 0,0.035278 c 0.00181,0.039136 0.010132,0.077356 0.017639,0.1146528 0.03366,0.1950383 0.1448299,0.3615223 0.3086805,0.4674303 0.078311,0.05062 0.168557,0.0871 0.2645834,0.105834 0.048013,0.0099 0.090127,0.01764 0.1411111,0.01764 l 5.3093058,0 c 0.050984,0 0.093098,-0.0077 0.1411111,-0.01764 0.096026,-0.01874 0.186272,-0.05521 0.264583,-0.105834 0.16385,-0.105908 0.275021,-0.272392 0.308681,-0.4674303 0.0075,-0.037297 0.01583,-0.075516 0.01764,-0.1146528 l 0,-0.035278 0,-0.2469445 0,-3.9158335 c 0,-0.4125934 -0.324141,-0.7408334 -0.7320131,-0.7408334 l -1.7727084,0 z"
       id="rect3375"
       inkscape:connector-curvature="0" />
    <path
       inkscape:connector-curvature="0"
       style="fill:#f57c00;fill-opacity:1;stroke:none"
       d="m 4.0922224,4.5155557 c -0.3908777,0 -0.7055555,0.3146778 -0.7055555,0.7055556 l 0,2.6811111 6.4911112,0 0,-2.6811111 c 0,-0.3908778 -0.3146778,-0.7055556 -0.7055556,-0.7055556 l -5.0800001,0 z"
       id="rect2987-2" />
    <path
       style="opacity:0.2;fill:#ffffff;fill-opacity:1;stroke:none"
       d="m 4.0922224,4.5155557 c -0.3908778,0 -0.7055556,0.3146778 -0.7055556,0.7055556 l 0,0.2822223 c 0,-0.3908778 0.3146778,-0.7055557 0.7055556,-0.7055557 l 5.0800004,0 c 0.3908775,0 0.7055553,0.3146779 0.7055553,0.7055557 l 0,-0.2822223 c 0,-0.3908778 -0.3146778,-0.7055556 -0.7055553,-0.7055556 l -5.0800004,0 z"
       id="rect3797"
       inkscape:connector-curvature="0" />
    <path
       style="fill:#ffb300;fill-opacity:1;stroke:none"
       d="m 4.1228988,5.6444431 1.1779711,0 C 6.9205807,5.4954925 6.6260875,3.9511097 7.6568122,3.9511097 l 1.7669567,0 C 9.8316412,3.9511097 10.16,4.2832696 10.16,4.695863 l 0,4.1549387 c 0,0.4125925 -0.3283588,0.7447523 -0.7362311,0.7447523 l -5.3008701,0 c -0.4078725,0 -0.7362319,-0.3321598 -0.7362319,-0.7447523 l 0,-2.3675306 c 0,-0.4468519 0.2944927,-0.838828 0.7362319,-0.838828 z"
       id="rect3776"
       inkscape:connector-curvature="0"
       sodipodi:nodetypes="cccsssssscc" />
    <path
       style="opacity:0.15;fill:#000000;fill-opacity:1;stroke:none"
       d="m 3.3866668,8.6077762 0,0.2822231 c 0,0.3908772 0.3283595,0.7055547 0.736232,0.7055547 l 5.3008701,0 C 9.8316412,9.595554 10.16,9.2808765 10.16,8.8899993 l 0,-0.2822231 c 0,0.3908781 -0.3283588,0.7055561 -0.7362311,0.7055561 l -5.3008701,0 c -0.4078725,0 -0.7362321,-0.314678 -0.7362321,-0.7055561 z"
       id="path3786"
       inkscape:connector-curvature="0"
       sodipodi:nodetypes="csssscssc" />
    <path
       d="m 4.468533,6.7428813 c -0.1102981,0 -0.2171758,0.014559 -0.3189234,0.039721 0,-0.00166 0,-0.0025 0,-0.00414 -0.113504,0.028489 -0.1996478,0.066547 -0.21632,0.073826 0,0.0025 0,0.00479 0,0.00728 -8.323e-4,0 -0.00257,8.328e-4 -0.00423,0.00166 0.011746,0.090254 0.028434,0.1794704 0.036767,0.2202309 0.090205,0.371211 0.3507726,0.6775381 0.6955613,0.840164 -0.00173,0.025164 -0.00423,0.049495 -0.00423,0.07549 0,0.3427202 0.1419334,0.6532067 0.3697968,0.8796767 -0.00172,8.328e-4 0.00173,0.00166 0,0.0025 0.066057,0.060101 0.1554012,0.129976 0.1737841,0.1437014 0.00491,0.0025 0.012619,0.00479 0.014967,0.00812 0.075871,-0.065102 0.1436304,-0.1356012 0.1611581,-0.1543176 0.2278642,-0.226678 0.3697984,-0.5369566 0.3697984,-0.8796769 0,-0.023499 -0.00423,-0.046376 -0.00491,-0.069876 0.3507682,-0.1576372 0.6153986,-0.4637565 0.7096648,-0.8360074 -0.00173,-8.33e-4 8.323e-4,-0.00166 0,-0.0025 0.023297,-0.099822 0.040185,-0.2079614 0.040185,-0.2193993 -0.00173,-8.329e-4 -0.00423,-0.00166 -0.00575,-0.0025 0,-0.00561 0,8.329e-4 0,-0.00479 -0.048524,-0.021213 -0.1586064,-0.057605 -0.2171757,-0.07632 0,0.00414 0,-0.00166 0,0.0025 C 6.16265,6.7605718 6.0506413,6.7435193 5.9371375,6.7435193 c -0.2746766,0 -0.528618,0.086095 -0.7372436,0.2297973 -0.080159,0.059268 -0.1378726,0.1095955 -0.174425,0.1437015 -0.00423,0.00414 -0.00667,0.00893 -0.010894,0.013101 -0.1203525,0.1218655 -0.2137641,0.2672304 -0.2763944,0.4281925 0.067546,0.039096 0.1344516,0.071538 0.1945176,0.099198 0.050024,-0.1414138 0.1327426,-0.2688942 0.2370546,-0.3762023 8.323e-4,-0.00166 0.00423,-0.00561 0.00658,-0.00811 0.00491,-0.00561 0.010064,-0.012266 0.017525,-0.018717 0.00173,-0.0025 0.00423,-0.0025 0.00658,-0.00479 0.074386,-0.063428 0.1327423,-0.1048123 0.176135,-0.1324715 0.021806,-0.013101 0.044249,-0.025996 0.06691,-0.037432 0.1477052,-0.076321 0.3140075,-0.120202 0.4935617,-0.120202 0.1068792,0 0.2111905,0.015389 0.3088774,0.044713 C 6.1807068,7.3081187 5.9812753,7.5616238 5.7080953,7.7036614 5.6655561,7.528142 5.5862545,7.3648922 5.475956,7.2268058 5.384042,7.2894029 5.3055927,7.352623 5.2998218,7.3576135 c 0.090206,0.1120913 0.1568963,0.242899 0.1936627,0.3857687 0,0 0.00423,0.014559 0.010894,0.042215 0.00257,0.013101 0.00491,0.021213 0.010044,0.047207 0.01347,0.065092 0.011757,0.1397501 0.010894,0.1696965 0,0.00561 0,0.021213 0,0.021213 l -0.00257,0.00333 c -0.00833,0.2811589 -0.1301689,0.533 -0.3231909,0.7149664 -0.199647,-0.187578 -0.3249086,-0.450857 -0.3255494,-0.7440825 0.1068781,0.02849 0.2186717,0.044712 0.3340996,0.044712 0.062628,0 0.1252612,-0.00645 0.1853268,-0.015388 0.0034,-0.021213 0.00491,-0.045545 0.00658,-0.082144 0.00257,-0.065092 -0.00575,-0.1095958 -0.012618,-0.1347594 -0.058361,0.00977 -0.1186351,0.014559 -0.1786998,0.014559 -0.1077333,0 -0.2120458,-0.015389 -0.3105867,-0.04388 C 4.8205209,7.7656351 4.7469894,7.7282014 4.6935501,7.6957596 4.6634126,7.6778753 4.6435278,7.6649815 4.6326322,7.6583264 4.3979286,7.5104659 4.2252137,7.2773412 4.1674993,7.0003365 c 0.094268,-0.026826 0.1936635,-0.042216 0.2973339,-0.042216 0.1511252,0 0.2930596,0.030779 0.422596,0.086927 C 4.9509117,6.9866105 5.0276519,6.9279667 5.0710452,6.8955241 4.890633,6.7996547 4.6843589,6.7437133 4.464831,6.7437133 m 0.00173,8.328e-4"
       id="path4159"
       inkscape:connector-curvature="0"
       style="fill:#000000;fill-opacity:0.09803922;fill-rule:nonzero;stroke:none" />
    <path
       style="fill:#fff8e1;fill-opacity:1;fill-rule:nonzero;stroke:none"
       inkscape:connector-curvature="0"
       id="path77-9"
       d="m 4.468533,6.4314704 c -0.1102981,0 -0.2171758,0.014559 -0.3189234,0.03972 0,-0.00166 0,-0.0025 0,-0.00414 -0.113504,0.028489 -0.1996478,0.066547 -0.21632,0.073826 0,0.0025 0,0.00479 0,0.00728 -8.323e-4,0 -0.00257,8.328e-4 -0.00423,0.00166 0.011746,0.090255 0.028434,0.1794705 0.036767,0.2202311 0.090205,0.3712109 0.3507726,0.6775381 0.6955613,0.8401639 -0.00173,0.025164 -0.00423,0.049495 -0.00423,0.07549 0,0.3427203 0.1419334,0.6532068 0.3697968,0.8796767 -0.00172,8.328e-4 0.00173,0.00166 0,0.0025 0.066057,0.060102 0.1554012,0.1299759 0.1737841,0.1437013 0.00491,0.0025 0.012619,0.00479 0.014967,0.00811 0.075872,-0.065082 0.1436318,-0.1355806 0.1611595,-0.1542969 0.2278642,-0.2266781 0.3697984,-0.5369566 0.3697984,-0.8796769 0,-0.023499 -0.00423,-0.046376 -0.00491,-0.069876 0.3507682,-0.1576375 0.6153986,-0.4637567 0.7096648,-0.8360077 -0.00173,-8.329e-4 8.323e-4,-0.00166 0,-0.0025 0.023297,-0.099822 0.040185,-0.2079612 0.040185,-0.2193992 -0.00173,-8.329e-4 -0.00423,-0.00166 -0.00575,-0.0025 0,-0.00561 0,8.328e-4 0,-0.00479 -0.048532,-0.021213 -0.1586145,-0.057605 -0.2171838,-0.076321 0,0.00414 0,-0.00166 0,0.0025 -0.1060218,-0.027664 -0.2180304,-0.044716 -0.3315343,-0.044716 -0.2746766,0 -0.5286181,0.086096 -0.7372436,0.2297974 -0.080159,0.059272 -0.1378727,0.109599 -0.1744249,0.1437049 -0.00423,0.00414 -0.00667,0.00893 -0.010894,0.013101 -0.1203441,0.1218654 -0.2137557,0.2672303 -0.2763859,0.4281926 0.067546,0.039096 0.1344516,0.071538 0.1945176,0.099198 0.050024,-0.1414139 0.1327425,-0.2688943 0.2370545,-0.3762023 8.323e-4,-0.00166 0.00423,-0.00561 0.00658,-0.00811 0.00491,-0.00561 0.010054,-0.012266 0.017525,-0.018717 0.00173,-0.0025 0.00423,-0.0025 0.00658,-0.00479 0.074386,-0.063428 0.1327424,-0.1048122 0.176135,-0.1324714 0.021806,-0.013102 0.044249,-0.025995 0.066911,-0.037433 0.1477051,-0.076321 0.3140074,-0.120202 0.4935616,-0.120202 0.1068793,0 0.2111906,0.015389 0.3088774,0.044713 C 6.1807031,6.9967073 5.9812711,7.2502123 5.7080911,7.39225 5.6655561,7.2167312 5.5862545,7.0534814 5.475956,6.9153951 5.384042,6.977992 5.3055927,7.0412122 5.2998218,7.0462028 c 0.090206,0.1120912 0.1568963,0.242899 0.1936627,0.3857686 0,0 0.00423,0.014559 0.010894,0.042215 0.00257,0.013101 0.00491,0.021213 0.010044,0.047207 0.01347,0.065092 0.011757,0.13975 0.010894,0.1696963 0,0.00561 0,0.021213 0,0.021213 l -0.00257,0.00333 C 5.5144211,7.9967951 5.3925776,8.2486364 5.1995556,8.4306026 4.9999086,8.2430214 4.874647,7.9797422 4.8740062,7.6865167 c 0.1068781,0.028491 0.2186717,0.044712 0.3340996,0.044712 0.062628,0 0.1252612,-0.00645 0.1853268,-0.015388 0.0034,-0.021213 0.00491,-0.045545 0.00658,-0.082145 0.00257,-0.065092 -0.00575,-0.1095955 -0.012618,-0.1347591 -0.058366,0.00978 -0.1186401,0.014559 -0.1787049,0.014559 -0.1077332,0 -0.2120459,-0.015389 -0.3105868,-0.04388 C 4.8205209,7.4542243 4.7469894,7.4167905 4.6935501,7.3843487 4.6634126,7.3664644 4.6435278,7.3535707 4.6326322,7.3469157 4.3979286,7.199055 4.2252137,6.9659303 4.1674993,6.6889256 c 0.094268,-0.026826 0.1936635,-0.042216 0.2973339,-0.042216 0.1511252,0 0.2930596,0.030779 0.422596,0.086927 C 4.9509117,6.6751995 5.0276519,6.6165559 5.0710452,6.5841133 4.890633,6.4882439 4.6843589,6.4323024 4.464831,6.4323024 m 0.00173,8.328e-4" />
  </g>
</svg>

<svg xmlns="http://www.w3.org/2000/svg" viewBox="0 0 48 48">
 <defs>
  <linearGradient id="linearGradient3764" x1="1" x2="47" gradientUnits="userSpaceOnUse" gradientTransform="matrix(0,-1,1,0,-1.5e-6,47.999998)">
   <stop style="stop-color:#7568a0;stop-opacity:1"/>
   <stop offset="1" style="stop-color:#8074a8;stop-opacity:1"/>
  </linearGradient>
 </defs>
 <g>
  <path d="m 36.31 5 c 5.859 4.062 9.688 10.831 9.688 18.5 c 0 12.426 -10.07 22.5 -22.5 22.5 c -7.669 0 -14.438 -3.828 -18.5 -9.688 c 1.037 1.822 2.306 3.499 3.781 4.969 c 4.085 3.712 9.514 5.969 15.469 5.969 c 12.703 0 23 -10.298 23 -23 c 0 -5.954 -2.256 -11.384 -5.969 -15.469 c -1.469 -1.475 -3.147 -2.744 -4.969 -3.781 z m 4.969 3.781 c 3.854 4.113 6.219 9.637 6.219 15.719 c 0 12.703 -10.297 23 -23 23 c -6.081 0 -11.606 -2.364 -15.719 -6.219 c 4.16 4.144 9.883 6.719 16.219 6.719 c 12.703 0 23 -10.298 23 -23 c 0 -6.335 -2.575 -12.06 -6.719 -16.219 z" style="opacity:0.05"/>
  <path d="m 41.28 8.781 c 3.712 4.085 5.969 9.514 5.969 15.469 c 0 12.703 -10.297 23 -23 23 c -5.954 0 -11.384 -2.256 -15.469 -5.969 c 4.113 3.854 9.637 6.219 15.719 6.219 c 12.703 0 23 -10.298 23 -23 c 0 -6.081 -2.364 -11.606 -6.219 -15.719 z" style="opacity:0.1"/>
  <path d="m 31.25 2.375 c 8.615 3.154 14.75 11.417 14.75 21.13 c 0 12.426 -10.07 22.5 -22.5 22.5 c -9.708 0 -17.971 -6.135 -21.12 -14.75 a 23 23 0 0 0 44.875 -7 a 23 23 0 0 0 -16 -21.875 z" style="opacity:0.2"/>
 </g>
 <g>
  <path d="m 24 1 c 12.703 0 23 10.297 23 23 c 0 12.703 -10.297 23 -23 23 -12.703 0 -23 -10.297 -23 -23 0 -12.703 10.297 -23 23 -23 z" style="fill:url(#linearGradient3764);fill-opacity:1"/>
 </g>
 <g>
  <path d="m 40.03 7.531 c 3.712 4.084 5.969 9.514 5.969 15.469 0 12.703 -10.297 23 -23 23 c -5.954 0 -11.384 -2.256 -15.469 -5.969 4.178 4.291 10.01 6.969 16.469 6.969 c 12.703 0 23 -10.298 23 -23 0 -6.462 -2.677 -12.291 -6.969 -16.469 z" style="opacity:0.1"/>
 </g>
 <g transform="matrix(3.543307,0,0,3.543307,0.0023625,-7.86546e-4)">
  <rect width="3.104" height="1.129" x="3.951" y="5.08" style="fill:#fffdf0;fill-opacity:1;stroke:none"/>
  <path d="m 7.938 4.233 c -0.537 0 -0.712 0.424 -0.988 0.847 l -2.575 0 c -0.391 0 -0.706 0.315 -0.706 0.706 0 1.117 0 2.234 0 3.351 l 0 0.035 c 0.002 0.039 0.0001 0.077 0.018 0.115 0.034 0.195 0.145 0.362 0.309 0.467 0.078 0.051 0.169 0.087 0.265 0.106 0.048 0.0001 0.09 0.018 0.141 0.018 l 5.309 0 c 0.051 0 0.093 -0.008 0.141 -0.018 0.096 -0.019 0.186 -0.055 0.265 -0.106 0.164 -0.106 0.275 -0.272 0.309 -0.467 0.008 -0.037 0.016 -0.076 0.018 -0.115 l 0 -0.035 c 0 -1.388 0 -2.775 0 -4.163 0 -0.413 -0.324 -0.741 -0.732 -0.741 l -1.773 0 z" style="fill:#000;fill-opacity:0.102;stroke:none"/>
  <path d="m 4.092,4.516 c -0.391,0 -0.706,0.315 -0.706,0.706 l 0,2.681 6.491,0 0,-2.681 C 9.877,4.831 9.562,4.516 9.171,4.516 l -5.08,0 z" style="fill:#f57c00;fill-opacity:1;stroke:none"/>
  <path d="m 4.092,4.516 c -0.391,0 -0.706,0.315 -0.706,0.706 l 0,0.282 c 0,-0.391 0.315,-0.706 0.706,-0.706 l 5.08,0 c 0.391,0 0.706,0.315 0.706,0.706 l 0,-0.282 C 9.878,4.831 9.563,4.516 9.172,4.516 l -5.08,0 z" style="fill:#fff;opacity:0.2;fill-opacity:1;stroke:none"/>
  <path d="m 4.123,5.644 1.178,0 C 6.921,5.495 6.626,3.951 7.657,3.951 l 1.767,0 c 0.408,0 0.736,0.332 0.736,0.745 l 0,4.155 c 0,0.413 -0.328,0.745 -0.736,0.745 l -5.301,0 C 3.715,9.596 3.387,9.264 3.387,8.851 l 0,-2.368 c 0,-0.447 0.294,-0.839 0.736,-0.839 z" style="fill:#ffb300;fill-opacity:1;stroke:none"/>
  <path d="m 3.387 8.608 0 0.282 c 0 0.391 0.328 0.706 0.736 0.706 l 5.301 0 c 0.408 0 0.736 -0.315 0.736 -0.706 l 0 -0.282 c 0 0.391 -0.328 0.706 -0.736 0.706 l -5.301 0 c -0.408 0 -0.736 -0.315 -0.736 -0.706" style="fill:#000;opacity:0.15;fill-opacity:1;stroke:none"/>
  <path d="m 4.469,6.743 c -0.11,0 -0.217,0.015 -0.319,0.04 0,-0.002 0,-0.003 0,-0.004 -0.114,0.028 -0.2,0.067 -0.216,0.074 0,0.003 0,0.005 0,0.007 -1e-4,0 -0.003,10e-5 -0.004,0.002 0.012,0.09 0.028,0.179 0.037,0.22 0.09,0.371 0.351,0.678 0.696,0.84 -0.002,0.025 -0.004,0.049 -0.004,0.075 0,0.343 0.142,0.653 0.37,0.88 -0.002,10e-5 0.002,0.002 0,0.002 0.066,0.06 0.155,0.13 0.174,0.144 C 5.208,9.025 5.216,9.028 5.218,9.031 5.294,8.966 5.362,8.895 5.379,8.877 5.607,8.65 5.749,8.34 5.749,7.997 5.749,7.974 5.745,7.951 5.744,7.927 6.095,7.769 6.359,7.463 6.454,7.091 6.452,7.0909 6.4541,7.089 6.454,7.088 6.477,6.988 6.494,6.88 6.494,6.869 6.492,6.8689 6.49,6.867 6.488,6.866 c 0,-0.006 0,1e-4 0,-0.005 C 6.439,6.84 6.329,6.803 6.271,6.785 c 0,0.004 0,-0.002 0,0.003 C 6.165,6.76 6.053,6.743 5.939,6.743 5.664,6.743 5.41,6.829 5.202,6.973 5.122,7.032 5.064,7.083 5.028,7.117 5.024,7.121 5.021,7.126 5.017,7.13 4.897,7.252 4.803,7.397 4.741,7.558 4.809,7.597 4.875,7.63 4.936,7.657 4.986,7.516 5.069,7.388 5.173,7.281 5.1731,7.279 5.177,7.275 5.18,7.273 5.185,7.267 5.181,7.261 5.198,7.254 5.2,7.251 5.202,7.251 5.205,7.249 5.279,7.186 5.338,7.144 5.381,7.117 5.403,7.104 5.425,7.091 5.448,7.08 5.596,7.004 5.762,6.96 5.942,6.96 6.049,6.96 6.153,6.975 6.251,7.005 6.186,7.309 5.986,7.562 5.713,7.704 5.67,7.528 5.591,7.365 5.481,7.227 5.389,7.29 5.311,7.353 5.305,7.358 c 0.09,0.112 0.157,0.243 0.194,0.386 0,0 0.004,0.015 0.011,0.042 0.003,0.013 0.005,0.021 0.001,0.047 0.013,0.065 0.012,0.14 0.011,0.17 0,0.006 0,0.021 0,0.021 L 5.519,8.027 C 5.511,8.308 5.389,8.56 5.196,8.742 4.996,8.554 4.871,8.291 4.87,7.998 4.977,8.026 5.089,8.043 5.204,8.043 5.267,8.043 5.329,8.037 5.389,8.028 5.392,8.007 5.394,7.982 5.396,7.946 5.399,7.881 5.39,7.836 5.383,7.811 5.325,7.812 5.264,7.826 5.204,7.826 5.096,7.826 4.992,7.811 4.893,7.782 4.815,7.767 4.742,7.729 4.688,7.697 4.658,7.679 4.638,7.666 4.627,7.66 4.392,7.512 4.22,7.279 4.162,7.002 4.256,6.975 4.356,6.96 4.459,6.96 4.61,6.96 4.752,6.991 4.882,7.047 4.945,6.989 5.022,6.93 5.066,6.897 4.886,6.801 4.679,6.745 4.46,6.745 m 0.002,10e-5" style="fill:#000;fill-opacity:0.098;stroke:none;fill-rule:nonzero"/>
  <path d="m 4.469,6.431 c -0.11,0 -0.217,0.015 -0.319,0.04 0,-0.002 0,-0.003 0,-0.004 -0.114,0.028 -0.2,0.067 -0.216,0.074 0,0.003 0,0.005 0,0.007 -1e-4,0 -0.003,10e-5 -0.004,0.002 0.012,0.09 0.028,0.179 0.037,0.22 0.09,0.371 0.351,0.678 0.696,0.84 -0.002,0.025 -0.004,0.049 -0.004,0.075 0,0.343 0.142,0.653 0.37,0.88 -0.002,10e-5 0.002,0.002 0,0.002 0.066,0.06 0.155,0.13 0.174,0.144 C 5.208,8.713 5.216,8.716 5.218,8.719 5.294,8.654 5.362,8.583 5.379,8.565 5.607,8.338 5.749,8.028 5.749,7.685 5.749,7.662 5.745,7.639 5.744,7.615 6.095,7.457 6.359,7.151 6.454,6.779 6.452,6.7789 6.4541,6.777 6.454,6.776 6.477,6.676 6.494,6.568 6.494,6.557 6.492,6.5569 6.49,6.555 6.488,6.554 c 0,-0.006 0,10e-5 0,-0.005 C 6.439,6.528 6.329,6.491 6.271,6.473 c 0,0.004 0,-0.002 0,0.003 C 6.165,6.448 6.053,6.431 5.939,6.431 5.664,6.431 5.41,6.517 5.202,6.661 5.122,6.72 5.064,6.771 5.028,6.805 5.024,6.809 5.021,6.814 5.017,6.818 4.897,6.94 4.803,7.085 4.741,7.246 4.809,7.285 4.875,7.318 4.936,7.345 4.986,7.204 5.069,7.076 5.173,6.969 5.1731,6.967 5.177,6.963 5.18,6.961 5.185,6.955 5.181,6.949 5.198,6.942 5.2,6.939 5.202,6.939 5.205,6.937 5.279,6.874 5.338,6.832 5.381,6.805 5.403,6.792 5.425,6.779 5.448,6.768 5.596,6.692 5.762,6.648 5.942,6.648 6.049,6.648 6.153,6.663 6.251,6.693 6.186,6.997 5.986,7.25 5.713,7.392 5.67,7.216 5.591,7.053 5.481,6.915 5.389,6.978 5.311,7.041 5.305,7.046 c 0.09,0.112 0.157,0.243 0.194,0.386 0,0 0.004,0.015 0.011,0.042 0.003,0.013 0.005,0.021 0.001,0.047 0.013,0.065 0.012,0.14 0.011,0.17 0,0.006 0,0.021 0,0.021 L 5.519,7.715 C 5.511,7.996 5.389,8.248 5.196,8.43 4.996,8.242 4.871,7.979 4.87,7.686 4.977,7.714 5.089,7.731 5.204,7.731 5.267,7.731 5.329,7.725 5.389,7.716 5.392,7.695 5.394,7.67 5.396,7.634 5.399,7.569 5.39,7.524 5.383,7.499 5.325,7.5 5.264,7.514 5.204,7.514 5.096,7.514 4.992,7.499 4.893,7.47 4.815,7.455 4.742,7.417 4.688,7.385 4.658,7.367 4.638,7.354 4.627,7.348 4.392,7.2 4.22,6.967 4.162,6.69 4.256,6.663 4.356,6.648 4.459,6.648 4.61,6.648 4.752,6.679 4.882,6.735 4.945,6.677 5.022,6.618 5.066,6.585 4.886,6.489 4.679,6.433 4.46,6.433 m 0.002,10e-5" style="fill:#fff8e1;fill-opacity:1;stroke:none;fill-rule:nonzero"/>
 </g>
</svg>
